polaris-icons/icons/new-icons/RefreshMajor.svg

<svg width="20" height="20" viewBox="0 0 20 20" fill="none" xmlns="http://www.w3.org/2000/svg">
<path d="M3.5 9.25C3.5 9.66421 3.83579 10 4.25 10C4.66421 10 5 9.66421 5 9.25C5 7.59315 6.34315 6.25 8 6.25H14.566L13.4425 7.49828C13.1654 7.80616 13.1904 8.28038 13.4983 8.55747C13.8062 8.83456 14.2804 8.80961 14.5575 8.50172L16.8075 6.00172C17.0743 5.70523 17.0624 5.25173 16.7803 4.96967L14.5303 2.71967C14.2374 2.42678 13.7626 2.42678 13.4697 2.71967C13.1768 3.01256 13.1768 3.48744 13.4697 3.78033L14.4393 4.75H8C5.51472 4.75 3.5 6.76472 3.5 9.25Z" fill="#4A4A4A"/>
<path d="M16.5 10.75C16.5 10.3358 16.1642 10 15.75 10C15.3358 10 15 10.3358 15 10.75C15 12.4069 13.6569 13.75 12 13.75H5.43402L6.55747 12.5017C6.83456 12.1938 6.80961 11.7196 6.50172 11.4425C6.19384 11.1654 5.71962 11.1904 5.44253 11.4983L3.19253 13.9983C2.92568 14.2948 2.93761 14.7483 3.21967 15.0303L5.46967 17.2803C5.76256 17.5732 6.23744 17.5732 6.53033 17.2803C6.82322 16.9874 6.82322 16.5126 6.53033 16.2197L5.56066 15.25H12C14.4853 15.25 16.5 13.2353 16.5 10.75Z" fill="#4A4A4A"/>
</svg>

<svg viewBox="0 0 20 20" xmlns="http://www.w3.org/2000/svg"><path d="M3.5 9.25a.75.75 0 0 0 1.5 0 3 3 0 0 1 3-3h6.566l-1.123 1.248a.75.75 0 1 0 1.114 1.004l2.25-2.5a.75.75 0 0 0-.027-1.032l-2.25-2.25a.75.75 0 1 0-1.06 1.06l.97.97h-6.44a4.5 4.5 0 0 0-4.5 4.5Z" fill="#5C5F62"/><path d="M16.5 10.75a.75.75 0 0 0-1.5 0 3 3 0 0 1-3 3h-6.566l1.123-1.248a.75.75 0 1 0-1.114-1.004l-2.25 2.5a.75.75 0 0 0 .027 1.032l2.25 2.25a.75.75 0 0 0 1.06-1.06l-.97-.97h6.44a4.5 4.5 0 0 0 4.5-4.5Z" fill="#5C5F62"/></svg>
